dist/resources/svg/myLogo-web.svg

<svg data-name="Layer 1" xmlns="http://www.w3.org/2000/svg" viewBox="0 0 151.5 117.87"><path d="M150.79 6.59l-5-5-44.53 44.55-25.55-25.55h0L50.25 46.05 5.79 1.59l-5 5 44.46 44.46L.71 95.59l5 5 44.54-44.54 25.54 25.54h0l25.46-25.45 44.45 44.45 5-5-44.44-44.45zm-75 65L55.25 51.05l20.46-20.46 20.55 20.55z" stroke="#000" stroke-miterlimit="10"/><text transform="translate(65.38 56.33)" font-size="14.14" font-family="NotoSansTC-Regular-83pv-RKSJ-H,Noto Sans TC">&lt;/&gt;</text><text transform="translate(19.19 14.08)" font-family="NotoSansTC-Thin-83pv-RKSJ-H,Noto Sans TC" font-size="16"><tspan letter-spacing="-.02em">L</tspan><tspan x="7.74" y="0">UKE</tspan></text><text transform="translate(63.03 14.1)" font-family="NotoSansTC-Bold-83pv-RKSJ-H,Noto Sans TC" font-size="16">MOR<tspan x="36.9" y="0" letter-spacing="-.01em">G</tspan><tspan x="48.24" y="0">AN</tspan></text><text transform="translate(16.36 102.12)" font-size="15" font-family="NotoSansTC-Thin-83pv-RKSJ-H,Noto Sans TC">WEB</text><text transform="translate(49.36 102.14)" font-size="15" font-family="NotoSansTC-Bold-83pv-RKSJ-H,Noto Sans TC">DEVE<tspan x="38.43" y="0" letter-spacing="-.04em">L</tspan><tspan x="46.51" y="0">OPER</tspan></text><path d="M123.327 38.249l11.088-11.073 11.468 11.485-11.088 11.072zM40.79 51.19l-18 18V34.38m-2.43-1.19l-6-6.01 1 49.01 5-5m-7.57-46.01l-6-7v35.01l6-5m-6 7l6-5v2l-6 5m0 2l6-5v24l-6 6m103.745-33.112l10.885-11.273 11.675 11.275-10.885 11.272zm13.269 13.194L134.689 53l11.675 11.274-10.885 11.272z"/></svg>

<?xml version="1.0" encoding="UTF-8" standalone="no"?>
<!DOCTYPE svg PUBLIC "-//W3C//DTD SVG 1.1//EN" "http://www.w3.org/Graphics/SVG/1.1/DTD/svg11.dtd">
<svg width="100%" height="100%" viewBox="0 0 152 118" version="1.1" xmlns="http://www.w3.org/2000/svg" xmlns:xlink="http://www.w3.org/1999/xlink" xml:space="preserve" xmlns:serif="http://www.serif.com/" style="fill-rule:evenodd;clip-rule:evenodd;stroke-miterlimit:10;">
    <g id="morgan" transform="matrix(0.827698,0,0,0.827698,46.42,25.1931)">
        <text x="0px" y="0px" style="font-family:'NotoSansTC-Regular', 'Noto Sans TC', sans-serif;font-size:16px;">MOR</text>
        <g transform="matrix(1,0,0,1,35.6918,0)">
            <text x="0px" y="0px" style="font-family:'NotoSansTC-Regular', 'Noto Sans TC', sans-serif;font-size:16px;">G</text>
        </g>
        <g transform="matrix(1,0,0,1,47.0318,0)">
            <text x="0px" y="0px" style="font-family:'NotoSansTC-Regular', 'Noto Sans TC', sans-serif;font-size:16px;">AN</text>
        </g>
    </g>
    <g id="luke" transform="matrix(0.759683,0,0,0.759683,60.5667,12.4457)">
        <text x="0px" y="0px" style="font-family:'NotoSansTC-Regular', 'Noto Sans TC', sans-serif;font-size:16px;">L</text>
        <g transform="matrix(1,0,0,1,7.74,0)">
            <text x="0px" y="0px" style="font-family:'NotoSansTC-Regular', 'Noto Sans TC', sans-serif;font-size:16px;">UKE</text>
        </g>
    </g>
    <g id="developer" transform="matrix(1,0,0,1,33.8533,108.86)">
        <text x="0px" y="0px" style="font-family:'NotoSansTC-Regular', 'Noto Sans TC', sans-serif;font-size:15px;">DEVE</text>
        <g transform="matrix(1,0,0,1,38.43,0)">
            <text x="0px" y="0px" style="font-family:'NotoSansTC-Regular', 'Noto Sans TC', sans-serif;font-size:15px;">L</text>
        </g>
        <g transform="matrix(1,0,0,1,46.51,0)">
            <text x="0px" y="0px" style="font-family:'NotoSansTC-Regular', 'Noto Sans TC', sans-serif;font-size:15px;">OPER</text>
        </g>
    </g>
    <g id="web" transform="matrix(1,0,0,1,58.9058,93.9604)">
        <text x="0px" y="0px" style="font-family:'NotoSansTC-Regular', 'Noto Sans TC', sans-serif;font-size:15px;">WEB</text>
    </g>
    <g transform="matrix(0.862404,0,0,0.862404,9.64803,8.85008)">
        <path d="M150.79,6.59L145.79,1.59L101.26,46.14L75.71,20.59L50.25,46.05L5.79,1.59L0.79,6.59L45.25,51.05L0.71,95.59L5.71,100.59L50.25,56.05L75.79,81.59L101.25,56.14L145.7,100.59L150.7,95.59L106.26,51.14L150.79,6.59ZM75.79,71.59L55.25,51.05L75.71,30.59L96.26,51.14L75.79,71.59Z" style="fill-rule:nonzero;stroke:black;stroke-width:1px;"/>
    </g>
    <g transform="matrix(0.862404,0,0,0.862404,66.032,57.4293)">
        <text x="0px" y="0px" style="font-family:'NotoSansTC-Regular', 'Noto Sans TC', sans-serif;font-size:14.14px;">&lt;/&gt;</text>
    </g>
    <g transform="matrix(0.862404,0,0,0.862404,9.64803,8.85008)">
        <path d="M123.327,38.249L134.415,27.176L145.883,38.661L134.795,49.733L123.327,38.249ZM40.79,51.19L22.79,69.19L22.79,34.38M20.36,33.19L14.36,27.18L15.36,76.19L20.36,71.19M12.79,25.18L6.79,18.18L6.79,53.19L12.79,48.19M6.79,55.19L12.79,50.19L12.79,52.19L6.79,57.19M6.79,59.19L12.79,54.19L12.79,78.19L6.79,84.19M110.535,51.078L121.42,39.805L133.095,51.08L122.21,62.352L110.535,51.078ZM123.804,64.272L134.689,53L146.364,64.274L135.479,75.546L123.804,64.272Z" style="fill-rule:nonzero;"/>
    </g>
</svg>
